!!!OTL: Et wolt e Bauer seng Diechterche bestuoden, S. 39f
!!!id: L0032
**kern
*clefG2
*k[]
*G:
{8g
=1
4g
4b
=2
4dd
8dd
8b
=3
8dd
8cc
8cc
8a
=4
4cc
8b}
=5
{8g
=6
4g
4b
=7
4.dd
8b
=8
8dd
8cc
8cc
8a
=9
4b}
8r
=10
{8dd
=11
4d
8g
8b
=12
4dd
8d
8d
=13
4.g}
==
*-
!!!minrhy: 8
!!!meters: 2/4 ]  ZZ[3
!!!cut: Et wolt e Bauer seng Diechterche bestuoden, S. 39f
!!!reg: Luxemburg 
!!!trd: Die Luxemburger Volkslieder &auml;lterer Zeit, Luxemburg 1904 posth.
!!!rhy1: X  X_X_  X_XX  XXXX  X_X
!!!rhy2: X  X_X_  X_.X  XXXX  X_0
!!!key: L0032  08  G 2/4 ]  ZZ[3
!!!mod: PENTATONIK DUR ?]  AMBITUS[8
!!!kad: 331
!!!akz: 1554_1553_-551_
!!!fot: 'a__aw_b__
!!!for: 'a__b__c__
!!!fok: '^a_^a_Vd_
!! PHRAS[AUFTAKTIG]
!!!fkt: Hochzeitslied
!! FONTAINE, Ed.:
!! PR[31] 2K[0] 2G[24] 3K[0] 3G[0] 4A[7] 4Ü[0] 5A[0] 6K[0] 6G[0]
!! 7K[0] 7G[0] 8A[0] MEHR[0] SI[31] ABS[29] SR[24] SP[7]
!! ST[10] 2k[7] 2g[24] 3k[0] 3g[7] 4d[0] 4ü[0] 5d[0] 6k[0] 6g[0]
!! 7k[0] 7g[0] 8d[0] mehr[0] si[38] dm[-7] sr[31] sp[7]
!! 1F[6] 2F[72] 3F[19] 4F[3] LF[0] 2P[0] 3P[0] 4P[0] TRI[0] DF[4] AB[32]
!! TF[0] U3K[0] U3[0] U4[0] U4Ü[0] U5[7] U6K[0] U6[7] U7K[0] U7[3]
!! N1[40] N2K[0] N2[27] N3K[0] N3[10] N4[3] N4Ü[0] N5[3] N6K[0] N6[0]
!!!n7k: 0] N7[0] O1[0] O2K[0] O2[0] O3K[0] O3[0] HÖ[0
!!!RNB: symbol: &auml;      = a umlaut  (UTF-8: Å„)
